modules/feathericon/icons/smile-alt.svg

<?xml version="1.0" encoding="UTF-8"?>
<svg width="24px" height="24px" viewBox="0 0 24 24" version="1.1" xmlns="http://www.w3.org/2000/svg" xmlns:xlink="http://www.w3.org/1999/xlink">
    <!-- Generator: sketchtool 52.2 (67145) - http://www.bohemiancoding.com/sketch -->
    <title>smile-alt</title>
    <desc>Created with sketchtool.</desc>
    <g id="people" stroke="none" stroke-width="1" fill="none" fill-rule="evenodd">
        <g id="smile-alt" fill="#000000">
            <path d="M12,20 C16.418278,20 20,16.418278 20,12 C20,7.581722 16.418278,4 12,4 C7.581722,4 4,7.581722 4,12 C4,16.418278 7.581722,20 12,20 Z M12,22 C6.4771525,22 2,17.5228475 2,12 C2,6.4771525 6.4771525,2 12,2 C17.5228475,2 22,6.4771525 22,12 C22,17.5228475 17.5228475,22 12,22 Z M9,13 C9,14.6568542 10.3431458,16 12,16 C13.6568542,16 15,14.6568542 15,13 L16,13 C16,15.209139 14.209139,17 12,17 C9.790861,17 8,15.209139 8,13 L8.99999999,13 Z M9.5,11 C10.3284271,11 11,10.3284271 11,9.5 C11,8.67157288 10.3284271,8 9.5,8 C8.67157288,8 8,8.67157288 8,9.5 C8,10.3284271 8.67157288,11 9.5,11 Z M14.5,11 C15.3284271,11 16,10.3284271 16,9.5 C16,8.67157288 15.3284271,8 14.5,8 C13.6715729,8 13,8.67157288 13,9.5 C13,10.3284271 13.6715729,11 14.5,11 Z" id="Shape"></path>
        </g>
    </g>
</svg>

<svg width="24" height="24" viewBox="0 0 24 24" xmlns="http://www.w3.org/2000/svg"><path d="M12 20a8 8 0 1 0 0-16 8 8 0 0 0 0 16zm0 2C6.477 22 2 17.523 2 12S6.477 2 12 2s10 4.477 10 10-4.477 10-10 10zm-3-9a3 3 0 0 0 6 0h1a4 4 0 1 1-8 0h1zm.5-2a1.5 1.5 0 1 0 0-3 1.5 1.5 0 0 0 0 3zm5 0a1.5 1.5 0 1 0 0-3 1.5 1.5 0 0 0 0 3z" fill="#000" fill-rule="evenodd"/></svg>
